!!!!SEGMENT: pl-sa--68-a-ii-8--001_mrozowski-tadeusz--missa-ex-g-kyrie.krn
!!!cenid: 17xx:327
!!!COM: Mrozowski, Tadeusz
!!!COM-rismid: pe30020313
!!!CDT: <1790->1810
!!!CNT:
!!!OPR: Missa ex G
!!!OTL: Kyrie
!!!OMV: 001
!!!PDT:
!!!AGN: Sacred; Mass
!!!SMS-siglum: PL-SA
!!!SMS-shelfmark: 68/A II 8
!!!SMS-shelfwork: 001-001 M
!!!NIFC-rismid: 1001035348
!!!URL-scan: http://bc.bdsandomierz.pl/dlibra/publication/1339/edition/1307/content
!!!ONB-nifc: UWAGA: części Mszy: Kyrie, Gloria, Symphonia post Epistolam, Credo, Tantum Ergo Sacramentum, Sanctus, Agnus, Dona nobis, Presto
!!!key: G
**kern	**dynam	**kern	**dynam	**kern	**dynam	**kern	**text
*part4	*part4	*part3	*part3	*part2	*part2	*part1	*part1
*group3	*	*group2	*	*group2	*	*group1	*
*staff4	*	*staff3	*	*staff2	*	*staff1	*staff1
*I"Baſso	*	*I"Violino 2do.	*	*I"Violino. Primo.	*	*I"Canto Solo.	*
*I'b	*	*I'vl 2	*	*I'vl 1	*	*I'S solo	*
*Iorgan	*	*Ivioln	*	*Ivioln	*	*Isoprn	*
*ICklav	*	*ICstr	*	*ICstr	*	*ICvox	*
*clefF4	*	*clefG2	*	*clefG2	*	*clefC1	*
*k[f#]	*	*k[f#]	*	*k[f#]	*	*k[f#]	*
*G:	*	*G:	*	*G:	*	*G:	*
*M3/4	*	*M3/4	*	*M3/4	*	*M3/4	*
=1	=1	=1	=1	=1	=1	=1	=1
*	*	*^	*	*	*	*	*
*2\right	*2\right	*2\right	*2\right	*2\right	*2\right	*2\right	*2\right	*2\right
*	*	*tremolo	*tremolo	*below	*	*	*	*
!LO:TX:a:B:t=Allo	!	!LO:TX:a:B:t=allo.	!	!LO:DY:t=for.	!LO:TX:a:B:t=allo.	!	!LO:TX:a:B:t=allo.:note=podkreślone	!
4.G\	.	8b/L	8g\L	f	4.gg\	.	4.gg\	Ky-
.	.	8b/	8g\	.	.	.	.	.
.	.	8b/	8g\	.	.	.	.	.
8G\	.	8b/	8g\	.	8gg\	.	8gg\	-ri-
4G\	.	8b/	8g\	.	4gg\	.	4gg\	-e
.	.	8b/J	8g\J	.	.	.	.	.
=2	=2	=2	=2	=2	=2	=2	=2	=2
*tremolo	*	*	*	*	*	*	*	*
!LO:TX:t=P:problem:mixed beam	!	!	!	!	!	!	!LO:TX:t=1	!
8GG/L	.	8b/L	8g\L	.	8r	.	2.r	.
8G\	.	8b/	8g\	.	8g/L	.	.	.
8GG/	.	8b/	8g\	.	8b/	.	.	.
8G\	.	8b/	8g\	.	8dd/	.	.	.
8GG/	.	8b/	8g\	.	8gg/	.	.	.
8G\J	.	8b/J	8g\J	.	8dd/J	.	.	.
*Xtremolo	*	*	*	*	*	*	*	*
=3	=3	=3	=3	=3	=3	=3	=3	=3
4.C/	.	8cc/L	8g\L	.	4.ee\	.	4.ee\	Ky-
.	.	8cc/	8g\	.	.	.	.	.
.	.	8cc/	8g\	.	.	.	.	.
8C/	.	8cc/	8g\	.	8ee\	.	8ee\	-ri-
4C/	.	8cc/	8g\	.	4ee\	.	4ee\	-e
.	.	8cc/J	8g\J	.	.	.	.	.
=4	=4	=4	=4	=4	=4	=4	=4	=4
*tremolo	*	*	*	*	*	*	*	*
!	!	!	!	!	!	!	!LO:TX:t=1	!
8C/L	.	8cc/L	8g\L	.	8r	.	2.r	.
8C/	.	8cc/	8g\	.	8g/L	.	.	.
8C/	.	8cc/	8g\	.	8cc/	.	.	.
8C/	.	8cc/	8g\	.	8ee/	.	.	.
8C/	.	8cc/	8g\	.	8gg/	.	.	.
8C/J	.	8cc/J	8g\J	.	8ee/J	.	.	.
*Xtremolo	*	*	*	*	*	*	*	*
=5	=5	=5	=5	=5	=5	=5	=5	=5
4.G\	.	8b/L	8g\L	.	4.dd\	.	4.dd\	Ky-
.	.	8b/	8g\	.	.	.	.	.
.	.	8b/	8g\	.	.	.	.	.
8G\	.	8b/	8g\	.	8dd\	.	8dd\	-ri-
4G\	.	8b/	8g\	.	4dd\	.	4dd\	-e
.	.	8b/J	8g\J	.	.	.	.	.
=6	=6	=6	=6	=6	=6	=6	=6	=6
*tremolo	*	*	*	*	*	*	*	*
!LO:TX:t=P:problem:mixed beam	!	!	!	!	!	!	!LO:TX:t=P:problem:brak taktu	!
8GG/L	.	8b/L	8g\L	.	8r	.	2.ryy	.
8G\	.	8b/	8g\	.	8g/L	.	.	.
8GG/	.	8b/	8g\	.	8b/	.	.	.
8G\	.	8b/	8g\	.	8dd/	.	.	.
8GG/	.	8b/	8g\	.	8gg/	.	.	.
8G\J	.	8b/J	8g\J	.	8dd/J	.	.	.
*	*	*	*Xtremolo	*	*	*	*	*
*	*	*v	*v	*	*	*	*	*
=7	=7	=7	=7	=7	=7	=7	=7
8D\L	.	8f#/	.	8a'/	.	4a\	e-
8D\	.	8r	.	8r	.	.	.
8D\	.	8g/	.	8b'/	.	4b\	-le-
8D\	.	8r	.	8r	.	.	.
8D\	.	8a/	.	8cc'/	.	4cc\	-i-
8D\J	.	8r	.	8r	.	.	.
*Xtremolo	*	*	*	*	*	*	*
!LO:LB:g=original	!	!	!	!	!	!	!
=8	=8	=8	=8	=8	=8	=8	=8
4G\	.	16g\LL	.	16b\LL	.	4b\	-son
.	.	16b\	.	16gg\	.	.	.
.	.	16a\	.	16ff#\	.	.	.
.	.	16b\JJ	.	16gg\JJ	.	.	.
4r	.	16cc\LL	.	16aa\LL	.	4r	.
.	.	16b\	.	16gg\	.	.	.
.	.	16a\	.	16ff#\	.	.	.
.	.	16b\JJ	.	16gg\JJ	.	.	.
4r	.	16cc\LL	.	16aa\LL	.	4r	.
.	.	16b\	.	16gg\	.	.	.
.	.	16a\	.	16ff#\	.	.	.
.	.	16b\JJ	.	16gg\JJ	.	.	.
=9	=9	=9	=9	=9	=9	=9	=9
!!LO:TX:t=P:problem:zbędny takt w S solo
!	!	!	!	!	!	!LO:TX:t=1	!
2.ryy	.	2.ryy	.	2.ryy	.	2.r	.
=10	=10	=10	=10	=10	=10	=10	=10
*tremolo	*	*	*	*	*	*	*
8D\L	.	8f#/	.	8a'\	.	4a\	e-
8D\	.	8r	.	8r	.	.	.
8D\	.	8g/	.	8b'\	.	4b\	-le-
8D\	.	8r	.	8r	.	.	.
8D\	.	8a/	.	8cc'\	.	4cc\	-i-
8D\J	.	8r	.	8r	.	.	.
*Xtremolo	*	*	*	*	*	*	*
!	!	!	!	!LO:LB:g=original	!	!	!
=11	=11	=11	=11	=11	=11	=11	=11
4G\	.	16b/LL	.	16b/LL	.	4b\	-son
.	.	16g/	.	16g/	.	.	.
.	.	16f#/	.	16f#/	.	.	.
.	.	16g/JJ	.	16g/JJ	.	.	.
4r	.	16d/LL	.	16d/LL	.	4r	.
.	.	16g/	.	16g/	.	.	.
.	.	16B/	.	16B/	.	.	.
.	.	16d/JJ	.	16d/JJ	.	.	.
4r	.	4G/	.	4G/	.	4r	.
=12	=12	=12	=12	=12	=12	=12	=12
8r	.	8b\L	.	8dd\L	.	8dd\L	Ky-
8GG/L	.	16g\L	.	16b\L	.	16b\L	.
.	.	16a\JJ	.	16dd\JJ	.	16dd\JJ	.
8BB/	.	8b/L	.	8gg\L	.	8gg\L	-ri-
8GG/	.	8b/	.	8dd\	.	8dd\	-e
8BB/	.	8a/	.	8cc\	.	8cc\	e-
8C/J	.	8g/J	.	8b\J	.	8b\J	-le-
!	!	!LO:LB:g=original	!	!	!	!	!
=13	=13	=13	=13	=13	=13	=13	=13
4D/	.	4g/	.	4b\	.	4b\	-i-
4DD/	.	4f#/	.	4a\	.	4a\	-son
4r	.	4r	.	4r	.	4r	.
=14	=14	=14	=14	=14	=14	=14	=14
!	!	!	!	!	!	!LO:TX:t=8.	!
!	!	!	!LO:DY:t=pp.	!	!LO:DY:b	!LO:N:vis=00	!
8F#\L	.	8.f#/L	pp	8.a\L	p	0.r	.
8D\	.	.	.	.	.	.	.
.	.	16g/Jk	.	16b\Jk	.	.	.
*	*	*tremolo	*	*tremolo	*	*	*
8F#\	.	8a/L	.	8cc\L	.	.	.
8D\	.	8a/	.	8cc\	.	.	.
8F#\	.	8a/	.	8cc\	.	.	.
8D\J	.	8a/J	.	8cc\J	.	.	.
*	*	*Xtremolo	*	*Xtremolo	*	*	*
=15	=15	=15	=15	=15	=15	=15	=15
8G\L	.	8.g/L	.	8.b\L	.	.	.
8D\	.	.	.	.	.	.	.
.	.	16a/Jk	.	16cc\Jk	.	.	.
*	*	*tremolo	*	*tremolo	*	*	*
8G\	.	8b/L	.	8dd\L	.	.	.
8D\	.	8b/	.	8dd\	.	.	.
8G\	.	8b/	.	8dd\	.	.	.
8D\J	.	8b/J	.	8dd\J	.	.	.
*	*	*Xtremolo	*	*Xtremolo	*	*	*
!LO:LB:g=original	!	!	!	!	!	!	!
=16	=16	=16	=16	=16	=16	=16	=16
4G\	.	4b/	.	4dd\	.	.	.
4BB/	.	4a/	.	4cc\	.	.	.
4C/	.	4g/	.	4b\	.	.	.
!	!	!LO:LB:g=original	!	!	!	!	!
=17	=17	=17	=17	=17	=17	=17	=17
4D/	.	4g/	.	4b\	.	.	.
4DD/	.	4f#/	.	4a\	.	.	.
4r	.	4r	.	4r	.	.	.
=18	=18	=18	=18	=18	=18	=18	=18
!	!	!LO:TX:t=P:problem:t. 18-21 zapisane repetycją	!	!LO:TX:t=P:problem:t. 18-21 zapisane repetycją	!	!LO:N:vis=00	!
8F#\L	.	8.f#/Lyy	.	8.a\Lyy	.	0.r	.
8D\	.	.	.	.	.	.	.
.	.	16g/Jkyy	.	16b\Jkyy	.	.	.
*	*	*tremolo	*	*tremolo	*	*	*
8F#\	.	8a/Lyy	.	8cc\Lyy	.	.	.
8D\	.	8a/yy	.	8cc\yy	.	.	.
8F#\	.	8a/yy	.	8cc\yy	.	.	.
8D\J	.	8a/Jyy	.	8cc\Jyy	.	.	.
*	*	*Xtremolo	*	*Xtremolo	*	*	*
=19	=19	=19	=19	=19	=19	=19	=19
8G\L	.	8.g/Lyy	.	8.b\Lyy	.	.	.
8D\	.	.	.	.	.	.	.
.	.	16a/Jkyy	.	16cc\Jkyy	.	.	.
*	*	*tremolo	*	*tremolo	*	*	*
8G\	.	8b/Lyy	.	8dd\Lyy	.	.	.
8D\	.	8b/yy	.	8dd\yy	.	.	.
8G\	.	8b/yy	.	8dd\yy	.	.	.
8D\J	.	8b/Jyy	.	8dd\Jyy	.	.	.
*	*	*Xtremolo	*	*Xtremolo	*	*	*
=20	=20	=20	=20	=20	=20	=20	=20
4G\	.	4b/yy	.	4dd\yy	.	.	.
4BB/	.	4a/yy	.	4cc\yy	.	.	.
4C/	.	4g/yy	.	4b\yy	.	.	.
=21	=21	=21	=21	=21	=21	=21	=21
4D/	.	4g/yy	.	4b\yy	.	.	.
4DD/	.	4f#/yy	.	4a\yy	.	.	.
4r	.	4ryy	.	4ryy	.	.	.
=22	=22	=22	=22	=22	=22	=22	=22
!	!	!	!LO:DY:t=for.	!	!	!	!
8G\L	.	(8b\L	f	8gg\L	.	8gg\L	Ky-
8F#\	.	8a\	.	8ff#\	.	8ff#\J	.
8G\	.	8b\	.	8gg\	.	8gg\L	-ri-
8F#\	.	8a\	.	8ff#\J	.	8ff#\J	.
8E\	.	8cc\	.	8ee\L	.	8ee\L	-e
8D\J	.	8b\J)	.	8dd\J	.	8dd\J	.
!	!	!	!	!	!	!LO:LB:g=original	!
=23	=23	=23	=23	=23	=23	=23	=23
8r	.	8b\L	.	8dd\L	.	8dd\L	e-
8D\L	.	8a\J	.	8cc#X\J	.	8cc#X\J	.
8F#\	.	4.a\	.	4.ccn\	.	4.ccn\	-lei-
8A\	.	.	.	.	.	.	.
8F#\	.	.	.	.	.	.	.
8D\J	.	8f#/	.	8a\	.	8a\	-son
!LO:LB:g=original	!	!	!	!	!	!	!
=24	=24	=24	=24	=24	=24	=24	=24
4G\	.	(8g\L	.	8b\L	.	8b\	Ky-
.	.	8b\	.	8dd\	.	8dd\	-ri-
!	!	!	!	!	!	!LO:TX:t=P:problem:8ff poprawione na 8gg	!
4r	.	8b\	.	8gg\	.	8gg\L	-e
.	.	8a\	.	8ff#\J	.	8ff#\J	.
4GG/	.	8cc\	.	8ee\L	.	8ee\L	.
.	.	8b\J)	.	8dd\J	.	8dd\J	.
=25	=25	=25	=25	=25	=25	=25	=25
8r	.	8b\L	.	8dd\L	.	8dd\L	e-
8D\L	.	8a\J	.	8cc#X\J	.	8cc#X\J	.
8F#\	.	4.a/	.	4.ccn\	.	4.ccn\	-le-
8A\	.	.	.	.	.	.	.
8F#\	.	.	.	.	.	.	.
8D\J	.	8f#/	.	8a\	.	8a\	-i-
!	!	!	!	!LO:LB:g=original	!	!	!
=26	=26	=26	=26	=26	=26	=26	=26
4G\	.	8b|\	.	8b'\L	.	4b\	-son
.	.	8r	.	8gg'\	.	.	.
4r	.	8b|\	.	8ff#'\	.	4r	.
.	.	8r	.	8gg'\	.	.	.
4GG/	.	8b|\	.	8dd'\	.	4r	.
.	.	8r	.	8gg'\J	.	.	.
=27	=27	=27	=27	=27	=27	=27	=27
!	!	!	!	!	!	!LO:TX:t=3	!
!	!	!	!	!	!	!LO:N:vis=0	!
4G\	.	4cc\	.	8ee'\L	.	1.r	.
.	.	.	.	8gg'\	.	.	.
4r	.	4r	.	8ff#'\	.	.	.
.	.	.	.	8gg'\	.	.	.
4GG/	.	4cc\	.	8cc'\	.	.	.
.	.	.	.	8gg'\J	.	.	.
=28	=28	=28	=28	=28	=28	=28	=28
4G\	.	4b\	.	8b'\L	.	.	.
.	.	.	.	8gg'\	.	.	.
4r	.	4r	.	8ff#'\	.	.	.
.	.	.	.	8gg'\	.	.	.
4GG/	.	4b\	.	8dd'\	.	.	.
.	.	.	.	8b'\J	.	.	.
=29	=29	=29	=29	=29	=29	=29	=29
4C/	.	(8g/L	.	(8ee\L	.	2.r	.
.	.	8e/)	.	8cc\	.	.	.
4D/	.	(8f#/	.	8dd\	.	.	.
.	.	8d/J)	.	8b\	.	.	.
!	!	!LO:LB:g=original	!	!	!	!	!
4DD/	.	(8e/L	.	8cc\	.	.	.
.	.	8c/J)	.	8a\J)	.	.	.
=30	=30	=30	=30	=30	=30	=30	=30
*	*	*^	*	*	*	*	*
*	*	*tremolo	*tremolo	*	*	*	*	*
4.G\	.	8b/L	8g\L	.	4.gg 4.b 4.d/	.	4.gg\	Ky-
.	.	8b/	8g\	.	.	.	.	.
.	.	8b/	8g\	.	.	.	.	.
8G\	.	8b/	8g\	.	8gg 8b 8d/	.	8gg\	-ri-
4G\	.	8b/	8g\	.	4gg 4b 4d/	.	4gg\	-e
.	.	8b/J	8g\J	.	.	.	.	.
=31	=31	=31	=31	=31	=31	=31	=31	=31
*tremolo	*	*	*	*	*	*	*	*
8GG/L	.	8cc/L	8g\L	.	8gg\L	.	8gg\L	e-
8G\	.	8cc/	8g\	.	8ff#\	.	8ff#\	.
8GG/	.	8cc/	8g\	.	8ee\	.	8ee\	-lei-
8G\	.	8cc/	8g\	.	8dd\J	.	8dd\J	.
8GG/	.	8cc/	8g\	.	4dd\	.	4dd\	-son
8G\J	.	8cc/J	8g/J	.	.	.	.	.
*Xtremolo	*	*	*	*	*	*	*	*
=32	=32	=32	=32	=32	=32	=32	=32	=32
4.C/	.	8cc/L	8g\L	.	4.ee/	.	4.ee\	Ky-
.	.	8cc/	8g\	.	.	.	.	.
.	.	8cc/	8g\	.	.	.	.	.
8C/	.	8cc/	8g\	.	8ee/	.	8ee\	-ri-
4C/	.	8cc/	8g\	.	4ee/	.	4ee\	-e
.	.	8cc/J	8g\J	.	.	.	.	.
!LO:LB:g=original	!	!	!	!	!	!	!	!
=33	=33	=33	=33	=33	=33	=33	=33	=33
4C/	.	8cc/L	8g\L	.	8ee\L	.	8ee\L	e-
.	.	8cc/	8g\	.	8dd\	.	8dd\	.
4GG/	.	8cc/	8g\	.	8cc\	.	8cc\	-lei-
.	.	8cc/	8g\	.	8b\J	.	8b\J	.
4GG/	.	8cc/	8g\	.	4b\	.	4b\	-son
.	.	8cc/J	8g\J	.	.	.	.	.
*	*	*	*Xtremolo	*	*	*	*	*
*	*	*v	*v	*	*	*	*	*
=34	=34	=34	=34	=34	=34	=34	=34
4G\	.	8g/	.	8b|\	.	4b\	e-
.	.	8r	.	8r	.	.	.
4D\	.	8a/	.	8cc|\	.	4cc\	-le-
.	.	8r	.	8r	.	.	.
4D\	.	8f#/	.	8a|/	.	4a\	-i-
.	.	8r	.	8r	.	.	.
!	!	!	!	!	!	!LO:LB:g=original	!
=35	=35	=35	=35	=35	=35	=35	=35
4GG/	.	16g/LL	.	16b\LL	.	4b\	-son
.	.	16b/	.	16gg\	.	.	.
.	.	16a/	.	16ff#\	.	.	.
.	.	16b/JJ	.	16gg\JJ	.	.	.
4r	.	16cc\LL	.	16aa\LL	.	4r	.
.	.	16b\	.	16gg\	.	.	.
.	.	16a\	.	16ff#\	.	.	.
.	.	16b\JJ	.	16gg\JJ	.	.	.
4r	.	16cc\LL	.	16aa\LL	.	4r	.
.	.	16b\	.	16gg\	.	.	.
.	.	16a\	.	16ff#\	.	.	.
.	.	16b\JJ	.	16gg\JJ	.	.	.
=36	=36	=36	=36	=36	=36	=36	=36
!	!	!LO:TX:t=P:problem:t. 36-37 zapisane repetycją	!	!	!	!	!
4G\	.	8g/yy	.	8b|\	.	4b\	e-
.	.	8ryy	.	8r	.	.	.
4D\	.	8a/yy	.	8cc|\	.	4cc\	-le-
.	.	8ryy	.	8r	.	.	.
4D\	.	8f#/yy	.	8a|/	.	4a\	-i-
.	.	8ryy	.	8r	.	.	.
!	!	!	!	!LO:LB:g=original	!	!	!
=37	=37	=37	=37	=37	=37	=37	=37
4GG/	.	16g/LLyy	.	16b\LL	.	4b\	-son
.	.	16b/yy	.	16gg\	.	.	.
.	.	16a/yy	.	16ff#\	.	.	.
.	.	16b/JJyy	.	16gg\JJ	.	.	.
4r	.	16cc\LLyy	.	16aa\LL	.	4r	.
.	.	16b\yy	.	16gg\	.	.	.
.	.	16a\yy	.	16ff#\	.	.	.
.	.	16b\JJyy	.	16gg\JJ	.	.	.
4r	.	16cc\LLyy	.	16aa\LL	.	4r	.
.	.	16b\yy	.	16gg\	.	.	.
.	.	16a\yy	.	16ff#\	.	.	.
.	.	16b\JJyy	.	16gg\JJ	.	.	.
=38	=38	=38	=38	=38	=38	=38	=38
8G\L	.	8r	.	8r	.	8gg\L	Ky-
8D\	.	8b|\L	.	8gg|\L	.	8gg\J	-ri-
8G\	.	(8dd\	.	(8bb\	.	8bb\L	-e
8D\	.	8b\	.	8gg\	.	8gg\J	[e]-
8F#\	.	8a\	.	8ff#\	.	8ff#\L	-lei-
8D\J	.	8cc\J)	.	8aa\J)	.	8aa\J	-son
=39	=39	=39	=39	=39	=39	=39	=39
*	*	*	*	*	*	*	*ij
8G\L	.	8r	.	8r	.	8gg\L	Ky-
8D\	.	8b|\L	.	8gg|\L	.	8gg\J	-ri-
8G\	.	(8dd\	.	(8bb\	.	8bb\L	-e
8D\	.	8b\	.	8gg\	.	8gg\J	[e]-
8F#\	.	8a\	.	8ff#\	.	8ff#\L	-lei-
8D\J	.	8cc\J)	.	8aa\J)	.	8aa\J	-son
*	*	*	*	*	*	*	*Xij
=40	=40	=40	=40	=40	=40	=40	=40
!LO:TX:t=P:problem: mixed beam	!	!	!	!	!	!	!
8GG/L	.	4b 4d/	.	4gg 4b 4d/	.	4gg\	e-
8G\J	.	.	.	.	.	.	.
8D\L	.	4b 4d/	.	4gg 4b 4d/	.	4gg\	-le-
8G\J	.	.	.	.	.	.	.
8BB/L	.	4b 4d/	.	4gg 4b 4d/	.	4gg\	-i-
8D/J	.	.	.	.	.	.	.
!LO:LB:g=original	!	!	!	!	!	!	!
=41	=41	=41	=41	=41	=41	=41	=41
4GG/	.	4b 4d/	.	4gg 4b 4d/	.	4gg\	-son
4r	.	4r	.	4r	.	4r	.
!	!	!	!	!	!	!	!
4r	.	4r	.	4r	.	4r	.
!	!	!LO:TX:a:t=40.	!	!LO:TX:a:t=40.	!	!LO:TX:a:t=40	!
=42||	=42||	=42||	=42||	=42||	=42||	=42||	=42||
*M2/4	*	*M2/4	*	*M2/4	*	*M2/4	*
*tremolo	*	*	*	*	*	*	*
!LO:TX:a:B:t=Andante	!	!LO:TX:b:t=Chryste.	!	!	!	!LO:TX:a:B:t=andante.	!
!LO:TX:a:t=Christe	!	!LO:TX:a:B:t=andante	!	!LO:TX:a:B:t=andante	!	!LO:TX:a:t=16.	!
!	!	!	!	!	!	!LO:N:vis=00	!
8G\L	.	8b\L	.	8dd'\L	.	0r	.
8G\	.	8b\J	.	8dd'\J	.	.	.
!	!	!LO:TUP:a:problem:klamra łukowa	!	!	!	!	!
8G\	.	24b\LL	.	24dd\LL	.	.	.
.	.	24cc\	.	24ee\	.	.	.
.	.	24dd\JJ	.	24ff#\JJ	.	.	.
!	!	!LO:TUP:a:problem:klamra łukowa	!	!LO:TUP:a:problem:klamra łukowa	!	!	!
8G\J	.	24ee\LL	.	24gg\LL	.	.	.
.	.	24dd\	.	24ff#\	.	.	.
.	.	24cc\JJ	.	24ee\JJ	.	.	.
!	!	!LO:LB:g=original	!	!	!	!	!
=43	=43	=43	=43	=43	=43	=43	=43
*	*	*^	*	*	*	*	*
*	*	*tremolo	*tremolo	*	*	*	*	*
!LO:SIC:v:s=8G\L	!	!	!	!	!	!	!	!
8G\L	.	8b/L	8g\L	.	8dd'\L	.	.	.
!LO:SIC:v:s=8G\	!	!	!	!	!	!	!	!
8G\	.	8b/	8g\	.	8b'\J	.	.	.
!LO:SIC:v:s=8G\	!	!	!	!	!	!	!	!
8G\	.	8b/	8g\	.	8g|\L	.	.	.
!LO:SIC:v:s=8G\J	!	!	!	!	!	!	!	!
8G\J	.	8b/J	8g\J	.	(16b\L	.	.	.
.	.	.	.	.	16dd\JJ)	.	.	.
=44	=44	=44	=44	=44	=44	=44	=44	=44
8D\L	.	8a/L	8f#\L	.	8cc|\L	.	.	.
8D\	.	8a/	8f#\	.	8a|\J	.	.	.
8D\	.	8a/	8f#\	.	16aa'\LL	.	.	.
.	.	.	.	.	16ff#'\	.	.	.
8D\J	.	8a/J	8f#\J	.	16dd'\	.	.	.
.	.	.	.	.	16cc'\JJ	.	.	.
*	*	*	*Xtremolo	*	*	*	*	*
*	*	*v	*v	*	*	*	*	*
=45	=45	=45	=45	=45	=45	=45	=45
8GG/L	.	(16g/LL	.	(16b\LL	.	.	.
.	.	16a/	.	16cc\	.	.	.
8GG/	.	16a/	.	16cc#X\	.	.	.
.	.	16b/JJ)	.	16dd\JJ)	.	.	.
!	!	!LO:TUP:a:problem:klamra łukowa	!	!LO:TUP:a:problem:klamra łukowa	!	!	!
8GG/	.	24b\LL	.	24dd\LL	.	.	.
.	.	24cc\	.	24ee\	.	.	.
.	.	24dd\JJ	.	24ff#\JJ	.	.	.
!	!	!LO:TUP:a:problem:klamra łukowa	!	!LO:TUP:a:problem:klamra łukowa	!	!	!
8GG/J	.	24ee\LL	.	24gg\LL	.	.	.
.	.	24dd\	.	24ff#\	.	.	.
.	.	24cc\JJ	.	24ee\JJ	.	.	.
*Xtremolo	*	*	*	*	*	*	*
!	!	!	!	!LO:LB:g=original	!	!	!
=46	=46	=46	=46	=46	=46	=46	=46
!	!	!	!	!	!	!LO:N:vis=00	!
8C/L	.	(16ee\LL	.	16ee\LL	.	0r	.
.	.	16cc\	.	16ccn\	.	.	.
8C/	.	16cc\	.	16cc\	.	.	.
.	.	16b\JJ)	.	16b\JJ	.	.	.
8C/	.	(16a/LL	.	16a/LL	.	.	.
.	.	16g/	.	16g/	.	.	.
8C#X/J	.	16f#/	.	16f#/	.	.	.
.	.	16e/JJ)	.	16e/JJ	.	.	.
=47	=47	=47	=47	=47	=47	=47	=47
*tremolo	*	*	*	*	*	*	*
8D\L	.	8e/L	.	8e/L	.	.	.
8D\	.	8d/J	.	8d/J	.	.	.
8D\	.	8d/L	.	8dd|\L	.	.	.
8D\J	.	8d/J	.	8dd|\J	.	.	.
!LO:LB:g=original	!	!	!	!	!	!	!
=48	=48	=48	=48	=48	=48	=48	=48
8D\L	.	4b\	.	4ddT\	.	.	.
8D\	.	.	.	.	.	.	.
!	!	!LO:TUP:a:problem:klamra łukowa	!	!LO:TUP:a:problem:klamra łukowa	!	!	!
8D\	.	24b\LL	.	24dd\LL	.	.	.
.	.	24cc\	.	24ee\	.	.	.
.	.	24dd\JJ	.	24ff#\JJ	.	.	.
!	!	!LO:TUP:a:problem:klamra łukowa	!	!LO:TUP:a:problem:klamra łukowa	!	!	!
8D\J	.	24ee\LL	.	24gg\LL	.	.	.
.	.	24ff#\	.	24aa\	.	.	.
.	.	24gg\JJ	.	24bb\JJ	.	.	.
=49	=49	=49	=49	=49	=49	=49	=49
8D\L	.	(16gg\LL	.	16bb\LL	.	.	.
.	.	16gg\	.	16aa\	.	.	.
8D\	.	16ff#\	.	16aa\	.	.	.
.	.	16aa\JJ)	.	16ccc\JJ	.	.	.
8D\	.	(16aa\LL	.	16ccc\LL	.	.	.
.	.	16gg\	.	16bb\	.	.	.
8D\J	.	16gg\	.	16bb\	.	.	.
.	.	16bb\JJ)	.	16ddd\JJ	.	.	.
=50	=50	=50	=50	=50	=50	=50	=50
!	!	!	!	!	!	!LO:N:vis=00	!
8D\L	.	16bb'\LL	.	16ddd\LL	.	0r	.
.	.	16aa'\JJ	.	16ccc\JJ	.	.	.
8D\	.	4aa\	.	4ccc\	.	.	.
8D\	.	.	.	.	.	.	.
8D\J	.	8gg\	.	8bb\	.	.	.
=51	=51	=51	=51	=51	=51	=51	=51
8D\L	.	8gg\L	.	8bb'\L	.	.	.
8D\	.	8ff#\J	.	8aa'\J	.	.	.
8D\	.	8d/L	.	8dd'\L	.	.	.
8D\J	.	8d/J	.	8dd'\J	.	.	.
=52	=52	=52	=52	=52	=52	=52	=52
!LO:TX:t=P:problem:t. 52-55 zapisane repetycją	!	!	!	!	!	!	!
8D\Lyy	.	4b\	.	4ddT\	.	.	.
8D\yy	.	.	.	.	.	.	.
!	!	!LO:TUP:a:problem:klamra łukowa	!	!LO:TUP:a:problem:klamra łukowa	!	!	!
8D\yy	.	24b\LL	.	24dd\LL	.	.	.
.	.	24cc\	.	24ee\	.	.	.
.	.	24dd\JJ	.	24ff#\JJ	.	.	.
!	!	!LO:TUP:a:problem:klamra łukowa	!	!LO:TUP:a:problem:klamra łukowa	!	!	!
8D\Jyy	.	24ee\LL	.	24gg\LL	.	.	.
.	.	24ff#\	.	24aa\	.	.	.
.	.	24gg\JJ	.	24bb\JJ	.	.	.
=53	=53	=53	=53	=53	=53	=53	=53
8D\Lyy	.	(16gg\LL	.	16bb\LL	.	.	.
.	.	16ff#\	.	16aa\	.	.	.
8D\yy	.	16ff#\	.	16aa\	.	.	.
.	.	16aa\JJ)	.	16ccc\JJ	.	.	.
8D\yy	.	16aa\LL	.	16ccc\LL	.	.	.
.	.	16gg\J	.	16bb\J	.	.	.
8D\Jyy	.	8gg\J	.	8bbt\J	.	.	.
!	!	!LO:LB:g=original	!	!	!	!	!
=54	=54	=54	=54	=54	=54	=54	=54
!	!	!	!	!	!	!LO:N:vis=00	!
8D\Lyy	.	16gg\LL	.	16bb\LL	.	0r	.
.	.	16ff#\	.	16aa\	.	.	.
8D\yy	.	16ff#\	.	16aa\	.	.	.
.	.	16aa\JJ	.	16ccc\JJ	.	.	.
8D\yy	.	16aa\LL	.	16ccc\LL	.	.	.
.	.	16gg\J	.	16bb\J	.	.	.
8D\Jyy	.	8gg\J	.	8bbt\J	.	.	.
=55	=55	=55	=55	=55	=55	=55	=55
8D\Lyy	.	16gg\LL	.	(16bb\LL	.	.	.
.	.	16bb\	.	16ddd\)	.	.	.
8D\yy	.	16b\	.	(16gg\	.	.	.
.	.	16dd\JJ	.	16bb\JJ)	.	.	.
8D\yy	.	16cc\LL	.	(16aa\LL	.	.	.
.	.	16ee\	.	16ccc\	.	.	.
8D\Jyy	.	16dd\	.	16bb\	.	.	.
.	.	16cc\JJ	.	16aa\JJ)	.	.	.
!	!	!	!	!LO:LB:g=original	!	!	!
=56	=56	=56	=56	=56	=56	=56	=56
!	!	!	!	!LO:TX:t=P:problem:wykreślona grupa szesnastkowa	!	!	!
8D\L	.	16gg\LL	.	16bb\LL	.	.	.
.	.	16bb\	.	16ddd\	.	.	.
8D\	.	16b\	.	16gg\	.	.	.
.	.	16dd\JJ	.	16bb\JJ	.	.	.
8D\	.	16cc\LL	.	16aa\LL	.	.	.
.	.	16ee\	.	16ccc\	.	.	.
8D\J	.	16dd\	.	16bb\	.	.	.
.	.	16cc\JJ	.	16aa\JJ	.	.	.
*Xtremolo	*	*	*	*	*	*	*
=57	=57	=57	=57	=57	=57	=57	=57
8G\L	.	8gg\L	.	8bb\L	.	.	.
8D\J	.	8gg\J	.	8bb\J	.	.	.
4GG;/	.	4gg;\	.	4bb;\	.	.	.
!LO:TX:b:i:t=Finale	!	!LO:TX:b:i:t=Finis	!	!LO:TX:b:i:t=Finis	!	!	!
=58||	=58||	=58||	=58||	=58||	=58||	=58||	=58||
*tremolo	*	*	*	*	*	*	*
!LO:TX:t=P:problem:mixed beam	!LO:DY:t=p.	!	!LO:DY:t=pp.	!	!	!	!
8GG/L	p	8b\L	pp	8dd|\L	.	8dd\L	Chry-
8G\	.	8b\J	.	8dd|\J	.	8dd\J	.
!	!	!LO:TUP:a:problem:klamra łukowa	!	!LO:TUP:a:problem:klamra łukowa	!	!	!
8GG/	.	24b\LL	.	24dd\LL	.	24dd\LL	-ste
.	.	24cc\	.	24ee\	.	24ee\	.
.	.	24dd\JJ	.	24ff#\JJ	.	24ff#\JJ	.
!	!	!LO:TUP:a:problem:klamra łukowa	!	!LO:TUP:a:problem:klamra łukowa	!	!LO:TUP:a:problem:klamra łukowa	!
8G\J	.	24ee\LL	.	24gg\LL	.	24gg\LL	e-
.	.	24dd\	.	24ff#\	.	24ff#\	-le[i]-
.	.	24cc\JJ	.	24ee\JJ	.	24ee\JJ	.
=59	=59	=59	=59	=59	=59	=59	=59
8GG/L	.	8cc\L	.	8ee|\L	.	8ee\L	.
8G\	.	8b\J	.	8dd|\J	.	8dd\J	-son
8GG/	.	4r	.	16r	.	4r	.
.	.	.	.	16dd'\LL	.	.	.
8G\J	.	.	.	16b'\	.	.	.
.	.	.	.	16g'\JJ	.	.	.
*Xtremolo	*	*	*	*	*	*	*
!	!	!	!	!	!	!LO:LB:g=original	!
=60	=60	=60	=60	=60	=60	=60	=60
*	*	*^	*	*	*	*	*
*	*	*tremolo	*tremolo	*	*	*	*	*
8A\L	.	8a/L	8f#\L	.	8cc|\L	.	8cc\L	Chry-
8F#\	.	8a/	8f#\	.	8cc|\J	.	8cc\J	-ste
8D\	.	8a/	8f#\	.	16r	.	4r	.
.	.	.	.	.	16aa'\LL	.	.	.
8F#\J	.	8a/J	8f#\J	.	16ff#'\	.	.	.
.	.	.	.	.	16cc'\JJ	.	.	.
=61	=61	=61	=61	=61	=61	=61	=61	=61
*	*	*	*	*	*	*	*	*ij
8G\L	.	8b/L	8g\L	.	8b|\L	.	8b\L	Chry-
8D\J	.	8b/	8g\	.	8b|\J	.	8b\J	-ste
*	*	*	*	*	*	*	*	*Xij
!LO:TX:t=P:problem: mixed beam	!	!	!	!	!LO:TX:t=P:problem: brak pauzy	!	!	!
8GG/L	.	8b/	8g\	.	16ryy	.	4r	.
.	.	.	.	.	16gg'\LL	.	.	.
8G\J	.	8b/J	8g\J	.	16dd'\	.	.	.
.	.	.	.	.	16b'\JJ	.	.	.
!LO:LB:g=original	!	!	!	!	!	!	!	!
=62	=62	=62	=62	=62	=62	=62	=62	=62
*tremolo	*	*	*	*	*	*	*	*
8D\L	.	8a/L	8f#\L	.	16a\LL	.	16a\LL	Chry-
.	.	.	.	.	16cc\	.	16cc\	.
8D\	.	8a/	8f#\	.	16cc\	.	16cc\	.
.	.	.	.	.	16ee\JJ	.	16ee\JJ	.
!	!	!	!	!	!LO:TX:t=P:problem:mixed beam	!	!LO:TX:t=P:problem:mixed beam	!
8D\	.	8a/	8f#\	.	8dd\L	.	8dd\L	-ste
8D\J	.	8a/J	8f#\J	.	8f#/J	.	8f#/J	e-
*Xtremolo	*	*	*Xtremolo	*	*	*	*	*
*	*	*v	*v	*	*	*	*	*
=63	=63	=63	=63	=63	=63	=63	=63
16r	.	16c/LL	.	16a/LL	.	16a\LL	-le-
16GG/LL	.	16B/J	.	16g/	.	16g\J	-i-
16BB/	.	8B/J	.	16f#/	.	8g\J	-son
16D/JJ	.	.	.	16g/JJ	.	.	.
16G\LL	.	8dL 8B/	.	4gT/	.	4r	.
16D\	.	.	.	.	.	.	.
16BB\	.	8dJ 8B/	.	.	.	.	.
16GG\JJ	.	.	.	.	.	.	.
=64	=64	=64	=64	=64	=64	=64	=64
*	*	*^	*	*	*	*	*
*	*	*tremolo	*tremolo	*	*	*	*	*
!	!	!LO:SIC:v:s=8a/L	!LO:SIC:v:s=8g\L	!	!	!	!	!
8A\L	.	8b/L	8g\L	.	8cc|\L	.	8cc|\L	Chry-
!	!	!LO:SIC:v:s=8a/	!LO:SIC:v:s=8g\	!	!	!	!	!
8F#\	.	8b/	8g\	.	8cc|\J	.	8cc|\J	-ste
!	!	!LO:SIC:v:s=8a/	!LO:SIC:v:s=8g\	!	!	!	!	!
8D\	.	8b/	8g\	.	16r	.	4r	.
.	.	.	.	.	(32aa\LLL	.	.	.
.	.	.	.	.	32gg\	.	.	.
!	!	!LO:SIC:v:s=8a/J	!LO:SIC:v:s=8g\J	!	!	!	!	!
8F#\J	.	8b/J	8g\J	.	32ff#\	.	.	.
.	.	.	.	.	32ee\	.	.	.
.	.	.	.	.	32dd\	.	.	.
.	.	.	.	.	32cc\JJJ)	.	.	.
!	!	!	!	!	!LO:LB:g=original	!	!	!
=65	=65	=65	=65	=65	=65	=65	=65	=65
*	*	*	*	*	*	*	*	*ij
!	!	!LO:SIC:v:s=8b\L	!LO:SIC:v:s=8g\L	!	!	!	!	!
8G\L	.	8a/L	8f#\L	.	8b|\L	.	8b|\L	Chry-
!	!	!LO:SIC:v:s=8b\	!LO:SIC:v:s=8g\	!	!	!	!	!
8D\J	.	8a/	8f#\	.	8b|\J	.	8b|\J	-ste
*	*	*	*	*	*	*	*	*Xij
!LO:TX:t=P:problem:mixed beam	!	!	!	!	!	!	!	!
!	!	!LO:SIC:v:s=8b\	!LO:SIC:v:s=8g\	!	!	!	!	!
8GG/L	.	8a/	8f#\	.	16r	.	4r	.
.	.	.	.	.	(32gg\LLL	.	.	.
.	.	.	.	.	32ff#\	.	.	.
!	!	!LO:SIC:v:s=8b\J	!LO:SIC:v:s=8g\J	!	!	!	!	!
8G\J	.	8a/J	8f#\J	.	32ee\	.	.	.
.	.	.	.	.	32dd\	.	.	.
.	.	.	.	.	32cc\	.	.	.
.	.	.	.	.	32b\JJJ)	.	.	.
=66	=66	=66	=66	=66	=66	=66	=66	=66
8C/L	.	8a/L	8f#\L	.	(16a\LL	.	16a\LL	Chry-
.	.	.	.	.	16cc\	.	16cc\	.
8AA/J	.	8a/	8f#\	.	16cc\	.	16cc\	.
.	.	.	.	.	16ee\JJ	.	16ee\JJ	.
!	!	!	!	!	!LO:TX:t=P:problem: mixed beam	!	!LO:TX:t=P:problem:mixed beam	!
8D/L	.	8a/	8f#\	.	8dd\L)	.	8dd\L	-ste
8DD/J	.	8a/J	8f#\J	.	8f#|>/J	.	8f#/J	[e]-
*	*	*	*Xtremolo	*	*	*	*	*
*	*	*v	*v	*	*	*	*	*
=67	=67	=67	=67	=67	=67	=67	=67
!LO:TX:t=P:problem:mixed beam	!	!	!	!	!	!	!
16GG/LL	.	16c/LL	.	16a/LL	.	16a/LL	-le-
16G\	.	16B/J	.	16g/J	.	16g/J	-i-
16D\	.	8B/J	.	8g/J	.	8g/J	-son
16BB\JJ	.	.	.	.	.	.	.
!LO:TX:t=P:problem:mixed beam	!	!	!	!	!	!LO:TX:b:t=42.	!
8GG/L	.	4r	.	4r	.	4r	.
!LO:TX:b:t=Da Capo,\nad Finale.	!	!	!	!	!	!	!
8G\J	.	.	.	.	.	.	.
!	!	!LO:TX:a:t=42.	!	!LO:TX:a:t=42.	!	!	!
!	!	!LO:TX:b:t=D.C. ad Fini	!	!LO:TX:b:t=D.C. ad. Finis	!	!	!
=68||	=68||	=68||	=68||	=68||	=68||	=68||	=68||
*tremolo	*	*	*	*	*	*	*
!LO:TX:a:B:t=Andante	!	!LO:TX:b:t=Chryste.	!	!	!	!	!
!LO:TX:a:t=Christe	!	!LO:TX:a:B:t=andante	!	!LO:TX:a:B:t=andante	!	!LO:TX:a:t=16.	!
!	!	!	!	!	!	!LO:N:vis=00	!
8G\Lyy	.	8b\Lyy	.	8dd'\Lyy	.	0r	.
8G\yy	.	8b\Jyy	.	8dd'\Jyy	.	.	.
!	!	!LO:TUP:a:problem:klamra łukowa	!	!	!	!	!
8G\yy	.	24b\LLyy	.	24dd\LLyy	.	.	.
.	.	24cc\yy	.	24ee\yy	.	.	.
.	.	24dd\JJyy	.	24ff#\JJyy	.	.	.
!	!	!LO:TUP:a:problem:klamra łukowa	!	!LO:TUP:a:problem:klamra łukowa	!	!	!
8G\Jyy	.	24ee\LLyy	.	24gg\LLyy	.	.	.
.	.	24dd\yy	.	24ff#\yy	.	.	.
.	.	24cc\JJyy	.	24ee\JJyy	.	.	.
!	!	!LO:LB:g=original	!	!	!	!	!
=69	=69	=69	=69	=69	=69	=69	=69
*	*	*^	*	*	*	*	*
*	*	*tremolo	*tremolo	*	*	*	*	*
!LO:SIC:v:s=8G\L	!	!	!	!	!	!	!	!
8G\Lyy	.	8b/Lyy	8g\Lyy	.	8dd'\Lyy	.	.	.
!LO:SIC:v:s=8G\	!	!	!	!	!	!	!	!
8G\yy	.	8b/yy	8g\yy	.	8b'\Jyy	.	.	.
!LO:SIC:v:s=8G\	!	!	!	!	!	!	!	!
8G\yy	.	8b/yy	8g\yy	.	8g|\Lyy	.	.	.
!LO:SIC:v:s=8G\J	!	!	!	!	!	!	!	!
8G\Jyy	.	8b/Jyy	8g\Jyy	.	(y16b\Lyy	.	.	.
.	.	.	.	.	16dd\JJ)yy	.	.	.
=70	=70	=70	=70	=70	=70	=70	=70	=70
8D\Lyy	.	8a/Lyy	8f#\Lyy	.	8cc|\Lyy	.	.	.
8D\yy	.	8a/yy	8f#\yy	.	8a|\Jyy	.	.	.
8D\yy	.	8a/yy	8f#\yy	.	16aa'\LLyy	.	.	.
.	.	.	.	.	16ff#'\yy	.	.	.
8D\Jyy	.	8a/Jyy	8f#\Jyy	.	16dd'\yy	.	.	.
.	.	.	.	.	16cc'\JJyy	.	.	.
*	*	*	*Xtremolo	*	*	*	*	*
*	*	*v	*v	*	*	*	*	*
=71	=71	=71	=71	=71	=71	=71	=71
8GG/Lyy	.	(y16g/LLyy	.	(y16b\LLyy	.	.	.
.	.	16a/yy	.	16cc\yy	.	.	.
8GG/yy	.	16a/yy	.	16cc#X\yy	.	.	.
.	.	16b/JJ)yy	.	16dd\JJ)yy	.	.	.
!	!	!LO:TUP:a:problem:klamra łukowa	!	!LO:TUP:a:problem:klamra łukowa	!	!	!
8GG/yy	.	24b\LLyy	.	24dd\LLyy	.	.	.
.	.	24cc\yy	.	24ee\yy	.	.	.
.	.	24dd\JJyy	.	24ff#\JJyy	.	.	.
!	!	!LO:TUP:a:problem:klamra łukowa	!	!LO:TUP:a:problem:klamra łukowa	!	!	!
8GG/Jyy	.	24ee\LLyy	.	24gg\LLyy	.	.	.
.	.	24dd\yy	.	24ff#\yy	.	.	.
.	.	24cc\JJyy	.	24ee\JJyy	.	.	.
*Xtremolo	*	*	*	*	*	*	*
!	!	!	!	!LO:LB:g=original	!	!	!
=72	=72	=72	=72	=72	=72	=72	=72
!	!	!	!	!	!	!LO:N:vis=00	!
8C/Lyy	.	(y16ee\LLyy	.	16ee\LLyy	.	0r	.
.	.	16cc\yy	.	16ccn\yy	.	.	.
8C/yy	.	16cc\yy	.	16cc\yy	.	.	.
.	.	16b\JJ)yy	.	16b\JJyy	.	.	.
8C/yy	.	(y16a/LLyy	.	16a/LLyy	.	.	.
.	.	16g/yy	.	16g/yy	.	.	.
8C#X/Jyy	.	16f#/yy	.	16f#/yy	.	.	.
.	.	16e/JJ)yy	.	16e/JJyy	.	.	.
=73	=73	=73	=73	=73	=73	=73	=73
*tremolo	*	*	*	*	*	*	*
8D\Lyy	.	8e/Lyy	.	8e/Lyy	.	.	.
8D\yy	.	8d/Jyy	.	8d/Jyy	.	.	.
8D\yy	.	8d/Lyy	.	8dd|\Lyy	.	.	.
8D\Jyy	.	8d/Jyy	.	8dd|\Jyy	.	.	.
!LO:LB:g=original	!	!	!	!	!	!	!
=74	=74	=74	=74	=74	=74	=74	=74
8D\Lyy	.	4b\yy	.	4ddT\yy	.	.	.
8D\yy	.	.	.	.	.	.	.
!	!	!LO:TUP:a:problem:klamra łukowa	!	!LO:TUP:a:problem:klamra łukowa	!	!	!
8D\yy	.	24b\LLyy	.	24dd\LLyy	.	.	.
.	.	24cc\yy	.	24ee\yy	.	.	.
.	.	24dd\JJyy	.	24ff#\JJyy	.	.	.
!	!	!LO:TUP:a:problem:klamra łukowa	!	!LO:TUP:a:problem:klamra łukowa	!	!	!
8D\Jyy	.	24ee\LLyy	.	24gg\LLyy	.	.	.
.	.	24ff#\yy	.	24aa\yy	.	.	.
.	.	24gg\JJyy	.	24bb\JJyy	.	.	.
=75	=75	=75	=75	=75	=75	=75	=75
8D\Lyy	.	(y16gg\LLyy	.	16bb\LLyy	.	.	.
.	.	16gg\yy	.	16aa\yy	.	.	.
8D\yy	.	16ff#\yy	.	16aa\yy	.	.	.
.	.	16aa\JJ)yy	.	16ccc\JJyy	.	.	.
8D\yy	.	(y16aa\LLyy	.	16ccc\LLyy	.	.	.
.	.	16gg\yy	.	16bb\yy	.	.	.
8D\Jyy	.	16gg\yy	.	16bb\yy	.	.	.
.	.	16bb\JJ)yy	.	16ddd\JJyy	.	.	.
=76	=76	=76	=76	=76	=76	=76	=76
!	!	!	!	!	!	!LO:N:vis=00	!
8D\Lyy	.	16bb'\LLyy	.	16ddd\LLyy	.	0r	.
.	.	16aa'\JJyy	.	16ccc\JJyy	.	.	.
8D\yy	.	4aa\yy	.	4ccc\yy	.	.	.
8D\yy	.	.	.	.	.	.	.
8D\Jyy	.	8gg\yy	.	8bb\yy	.	.	.
=77	=77	=77	=77	=77	=77	=77	=77
8D\Lyy	.	8gg\Lyy	.	8bb'\Lyy	.	.	.
8D\yy	.	8ff#\Jyy	.	8aa'\Jyy	.	.	.
8D\yy	.	8d/Lyy	.	8dd'\Lyy	.	.	.
8D\Jyy	.	8d/Jyy	.	8dd'\Jyy	.	.	.
=78	=78	=78	=78=78	=78	=78	=78	=78
!LO:TX:t=P:problem:t. 52-55 zapisane repetycją	!	!	!	!	!	!	!
8D\Lyyyy	.	4b\yy	.	4ddT\yy	.	.	.
8D\yyyy	.	.	.	.	.	.	.
!	!	!LO:TUP:a:problem:klamra łukowa	!	!LO:TUP:a:problem:klamra łukowa	!	!	!
8D\yyyy	.	24b\LLyy	.	24dd\LLyy	.	.	.
.	.	24cc\yy	.	24ee\yy	.	.	.
.	.	24dd\JJyy	.	24ff#\JJyy	.	.	.
!	!	!LO:TUP:a:problem:klamra łukowa	!	!LO:TUP:a:problem:klamra łukowa	!	!	!
8D\Jyyyy	.	24ee\LLyy	.	24gg\LLyy	.	.	.
.	.	24ff#\yy	.	24aa\yy	.	.	.
.	.	24gg\JJyy	.	24bb\JJyy	.	.	.
=79	=79	=79	=79	=79	=79	=79	=79
8D\Lyyyy	.	(y16gg\LLyy	.	16bb\LLyy	.	.	.
.	.	16ff#\yy	.	16aa\yy	.	.	.
8D\yyyy	.	16ff#\yy	.	16aa\yy	.	.	.
.	.	16aa\JJ)yy	.	16ccc\JJyy	.	.	.
8D\yyyy	.	16aa\LLyy	.	16ccc\LLyy	.	.	.
.	.	16gg\Jyy	.	16bb\Jyy	.	.	.
8D\Jyyyy	.	8gg\Jyy	.	8bbt\Jyy	.	.	.
!	!	!LO:LB:g=original	!	!	!	!	!
=80	=80	=80	=80	=80	=80	=80	=80
!	!	!	!	!	!	!LO:N:vis=00	!
8D\Lyyyy	.	16gg\LLyy	.	16bb\LLyy	.	0r	.
.	.	16ff#\yy	.	16aa\yy	.	.	.
8D\yyyy	.	16ff#\yy	.	16aa\yy	.	.	.
.	.	16aa\JJyy	.	16ccc\JJyy	.	.	.
8D\yyyy	.	16aa\LLyy	.	16ccc\LLyy	.	.	.
.	.	16gg\Jyy	.	16bb\Jyy	.	.	.
8D\Jyyyy	.	8gg\Jyy	.	8bbt\Jyy	.	.	.
=81	=81	=81	=81	=81	=81	=81	=81
8D\Lyyyy	.	16gg\LLyy	.	(y16bb\LLyy	.	.	.
.	.	16bb\yy	.	16ddd\)yy	.	.	.
8D\yyyy	.	16b\yy	.	(y16gg\yy	.	.	.
.	.	16dd\JJyy	.	16bb\JJ)yy	.	.	.
8D\yyyy	.	16cc\LLyy	.	(y16aa\LLyy	.	.	.
.	.	16ee\yy	.	16ccc\yy	.	.	.
8D\Jyyyy	.	16dd\yy	.	16bb\yy	.	.	.
.	.	16cc\JJyy	.	16aa\JJ)yy	.	.	.
!	!	!	!	!LO:LB:g=original	!	!	!
=82	=82	=82	=82	=82	=82	=82	=82
!	!	!	!	!LO:TX:t=P:problem:wykreślona grupa szesnastkowa	!	!	!
8D\Lyy	.	16gg\LLyy	.	16bb\LLyy	.	.	.
.	.	16bb\yy	.	16ddd\yy	.	.	.
8D\yy	.	16b\yy	.	16gg\yy	.	.	.
.	.	16dd\JJyy	.	16bb\JJyy	.	.	.
8D\yy	.	16cc\LLyy	.	16aa\LLyy	.	.	.
.	.	16ee\yy	.	16ccc\yy	.	.	.
8D\Jyy	.	16dd\yy	.	16bb\yy	.	.	.
.	.	16cc\JJyy	.	16aa\JJyy	.	.	.
*Xtremolo	*	*	*	*	*	*	*
=83	=83	=83	=83	=83	=83	=83	=83
8G\Lyy	.	8gg\Lyy	.	8bb\Lyy	.	.	.
8D\Jyy	.	8gg\Jyy	.	8bb\Jyy	.	.	.
4GG;/yy	.	4gg;\yy	.	4bb;\yy	.	.	.
==	==	==	==	==	==	==	==
*-	*-	*-	*-	*-	*-	*-	*-
!!!system-decoration: [g1][g2]g3
!!!RDF**kern: > = above
!!!RDF**kern: < = below
!!!RDF**kern: | = vertical stroke
!!!AIN: 1 organ 1 soprn 2 violn
!!!ENC: Krzysztof Stępień
!!!END: 2020-04-27
!!!ENC: Katarzyna Serwa
!!!END: 2021-12-30
